!!!OTL: WILHELM KOMM AN MEINE SEITE
!!!ARE: Europa, Mitteleuropa, Deutschland, Hochwald, Hellertshausen u.a.
!!!SCT: E0347
!!!YEM: Copyright 1995, estate of Helmut Schaffrath.
**kern
*ICvox
*Ivox
*M4/4
*k[b-]
*F:
{8f
8a
=1
4cc
4cc
4cc
8dd
8cc
=2
4a
4f
4r}
{8g
8a
=3
4.b-
8b-
4a
8cc
8a
=4
2g
4r}
{8f
8a
=5
4cc
4cc
4ff
8ee
8dd
=6
8.cc
16dd
4cc
4r}
{8b-
8a
=7
4g
4dd
4cc
8b-
8cc
=8
2a
4r}
{8f
8a
=9
4cc
4cc
4ff
8ee
8dd
=10
8.cc
16dd
4cc
4r}
{8b-
8a
=11
4g
4dd
4cc
8b-
8cc
=12
2a
4r}
==
!!!AGN: historisches Lied, Tod Koenigin Louise (1810)
!!!ONB: ESAC (Essen Associative Code) Database: ERK1
!!!AMT: simple quadruple
!!!AIN: vox
!!!EED: Helmut Schaffrath
!!!EEV: 1.0
*-
